modules/hawcons-stroke/icons/icon-64-document-movie.svg

<?xml version="1.0" encoding="UTF-8" standalone="no"?>
<svg width="32px" height="32px" viewBox="0 0 32 32" version="1.1" xmlns="http://www.w3.org/2000/svg" xmlns:xlink="http://www.w3.org/1999/xlink" xmlns:sketch="http://www.bohemiancoding.com/sketch/ns">
    <!-- Generator: Sketch 3.0.3 (7891) - http://www.bohemiancoding.com/sketch -->
    <title>icon 64 document movie</title>
    <desc>Created with Sketch.</desc>
    <defs></defs>
    <g id="Page-1" stroke="none" stroke-width="1" fill="none" fill-rule="evenodd" sketch:type="MSPage">
        <g id="icon-64-document-movie" sketch:type="MSArtboardGroup" fill="#929292">
            <path d="M19.5,3 L9.00276013,3 C7.89666625,3 7,3.89833832 7,5.00732994 L7,27.9926701 C7,29.1012878 7.89092539,30 8.99742191,30 L24.0025781,30 C25.1057238,30 26,29.1017876 26,28.0092049 L26,10.5 L26,10 L20,3 L19.5,3 L19.5,3 L19.5,3 Z M19,4 L8.9955775,4 C8.44573523,4 8,4.45526288 8,4.99545703 L8,28.004543 C8,28.5543187 8.45470893,29 8.9999602,29 L24.0000398,29 C24.5523026,29 25,28.5550537 25,28.0066023 L25,11 L20.9979131,11 C19.8944962,11 19,10.1134452 19,8.99408095 L19,4 L19,4 Z M20,4.5 L20,8.99121523 C20,9.54835167 20.4506511,10 20.9967388,10 L24.6999512,10 L20,4.5 L20,4.5 Z M10,16 L10,27 L23,27 L23,16 L10,16 L10,16 Z M13,17 L13,21 L20,21 L20,17 L13,17 L13,17 Z M13,22 L13,26 L20,26 L20,22 L13,22 L13,22 Z M11,17 L11,18 L12,18 L12,17 L11,17 L11,17 Z M11,19 L11,20 L12,20 L12,19 L11,19 L11,19 Z M11,21 L11,22 L12,22 L12,21 L11,21 L11,21 Z M11,23 L11,24 L12,24 L12,23 L11,23 L11,23 Z M11,25 L11,26 L12,26 L12,25 L11,25 L11,25 Z M21,17 L21,18 L22,18 L22,17 L21,17 L21,17 Z M21,19 L21,20 L22,20 L22,19 L21,19 L21,19 Z M21,21 L21,22 L22,22 L22,21 L21,21 L21,21 Z M21,23 L21,24 L22,24 L22,23 L21,23 L21,23 Z M21,25 L21,26 L22,26 L22,25 L21,25 L21,25 Z" id="document-movie" sketch:type="MSShapeGroup"></path>
        </g>
    </g>
</svg>

<svg width="32" height="32" xmlns="http://www.w3.org/2000/svg"><path d="M19.5 3H9.003A2.005 2.005 0 0 0 7 5.007v22.986A2 2 0 0 0 8.997 30h15.006A1.999 1.999 0 0 0 26 28.01V10l-6-7h-.5zM19 4H8.996C8.446 4 8 4.455 8 4.995v23.01c0 .55.455.995 1 .995h15c.552 0 1-.445 1-.993V11h-4.002A1.995 1.995 0 0 1 19 8.994V4zm1 .5v4.491c0 .557.45 1.009.997 1.009H24.7L20 4.5zM10 16v11h13V16H10zm3 1v4h7v-4h-7zm0 5v4h7v-4h-7zm-2-5v1h1v-1h-1zm0 2v1h1v-1h-1zm0 2v1h1v-1h-1zm0 2v1h1v-1h-1zm0 2v1h1v-1h-1zm10-8v1h1v-1h-1zm0 2v1h1v-1h-1zm0 2v1h1v-1h-1zm0 2v1h1v-1h-1zm0 2v1h1v-1h-1z" fill="#929292" fill-rule="evenodd"/></svg>
